X:370 
T:American Patrol 
M:4/4 
L:1/8 
C:Frank White Meachum 
K:G 
D2 | G2 G2 GFGA | B2 B2 BABc | d2 d2 d^cdg | d4 z2 B2 | 
c2 cB A2 c2 | B2 BA G2 B2 | A2 E2 F2 G2 | ABcB ADEF | 
G2 G2 GFGA | B2 B2 BABc | d2 d2 d^cdg | d4 z2 G2 | 
e2 d2 c2 B2 | A2 G2 F2 G2 | A2 Bc B2 A2 | G2 DEFG AB || 
c2 c2 c2 c2 | cB c3 ^c | d2 d2 dcBc | d6 B2 | 
c2 c2 c2 c2 | cB c3 ^c | d2 d2 dcBc | d6 d2 | 
e2 e2 g3 e | d2 de dc B2 | c2 c2 F3 c | B2 Bc BA G2 | 
e2 e2 g3 e | d2 de dc B2 | c2 c2 F2 A2 | G6 || 

